X:1
T:Carpathian Tune
T:Dance: Belligerent Bluejay
R:reel
S:String Beings 11/98
Z:Original transcription by John Chambers
M:2/4
L:1/16
K:Em
"Play as lead in" GFE2 F2G2 | E8 |: EFGA B2B2 | ^A2A2 B4 | GFE2 F2G2 |
F8 | EFGA B2B2 | ^A2A2 B4 | GFE2 F2G2 | E8 :|
A2{BA}E2 A2{BA}E2 | G2{AG}E2 G2{AG}E2 | A2{BA}E2 A3B | GAFG E4 |
A2{BA}E2 A2{BA}E2 | G2{AG}E2 G2A2 | B4 B2Bc | B2A2 G2F2 :|
